favicon.svg

<svg width="64" height="64" viewBox="0 0 24 24" fill="none" xmlns="http://www.w3.org/2000/svg" stroke="#1fffd2"><g stroke="#1ce9b5" stroke-width="1.5" stroke-linecap="round" stroke-linejoin="round"><path d="M8 2v3M16 2v3M21 8.5v5.13a5.19 5.19 0 0 0-3.25-1.13c-1.23 0-2.38.43-3.28 1.16a5.188 5.188 0 0 0-1.97 4.09c0 .98.28 1.92.76 2.7.37.61.85 1.14 1.42 1.55H8c-3.5 0-5-2-5-5V8.5c0-3 1.5-5 5-5h8c3.5 0 5 2 5 5z" stroke-miterlimit="10"/><path opacity=".4" d="M7 11h6M7 16h2.62" stroke-miterlimit="10"/><path d="M23 17.75c0 .98-.28 1.92-.76 2.7-.28.48-.63.9-1.04 1.24-.92.82-2.12 1.31-3.45 1.31-1.15 0-2.21-.37-3.07-1-.57-.41-1.05-.94-1.42-1.55-.48-.78-.76-1.72-.76-2.7 0-1.65.76-3.14 1.97-4.09.9-.73 2.05-1.16 3.28-1.16s2.36.42 3.25 1.13c1.22.96 2 2.45 2 4.12z" stroke-miterlimit="10"/><path opacity=".4" d="M17.75 20.25a2.5 2.5 0 0 1 2.5-2.5 2.5 2.5 0 0 1-2.5-2.5 2.5 2.5 0 0 1-2.5 2.5 2.5 2.5 0 0 1 2.5 2.5z"/></g></svg>

<svg width="64px" height="64px" viewBox="0 0 24 24" fill="none" xmlns="http://www.w3.org/2000/svg" stroke="#1fffd2"><g id="SVGRepo_bgCarrier" stroke-width="0"></g><g id="SVGRepo_tracerCarrier" stroke-linecap="round" stroke-linejoin="round"></g><g id="SVGRepo_iconCarrier"> <path d="M8 2V5" stroke="#1ce9b5" stroke-width="1.5" stroke-miterlimit="10" stroke-linecap="round" stroke-linejoin="round"></path> <path d="M16 2V5" stroke="#1ce9b5" stroke-width="1.5" stroke-miterlimit="10" stroke-linecap="round" stroke-linejoin="round"></path> <path d="M21 8.5V13.63C20.11 12.92 18.98 12.5 17.75 12.5C16.52 12.5 15.37 12.93 14.47 13.66C13.26 14.61 12.5 16.1 12.5 17.75C12.5 18.73 12.78 19.67 13.26 20.45C13.63 21.06 14.11 21.59 14.68 22H8C4.5 22 3 20 3 17V8.5C3 5.5 4.5 3.5 8 3.5H16C19.5 3.5 21 5.5 21 8.5Z" stroke="#1ce9b5" stroke-width="1.5" stroke-miterlimit="10" stroke-linecap="round" stroke-linejoin="round"></path> <path opacity="0.4" d="M7 11H13" stroke="#1ce9b5" stroke-width="1.5" stroke-miterlimit="10" stroke-linecap="round" stroke-linejoin="round"></path> <path opacity="0.4" d="M7 16H9.62" stroke="#1ce9b5" stroke-width="1.5" stroke-miterlimit="10" stroke-linecap="round" stroke-linejoin="round"></path> <path d="M23 17.75C23 18.73 22.72 19.67 22.24 20.45C21.96 20.93 21.61 21.35 21.2 21.69C20.28 22.51 19.08 23 17.75 23C16.6 23 15.54 22.63 14.68 22C14.11 21.59 13.63 21.06 13.26 20.45C12.78 19.67 12.5 18.73 12.5 17.75C12.5 16.1 13.26 14.61 14.47 13.66C15.37 12.93 16.52 12.5 17.75 12.5C18.98 12.5 20.11 12.92 21 13.63C22.22 14.59 23 16.08 23 17.75Z" stroke="#1ce9b5" stroke-width="1.5" stroke-miterlimit="10" stroke-linecap="round" stroke-linejoin="round"></path> <path opacity="0.4" d="M17.75 20.25C17.75 18.87 18.87 17.75 20.25 17.75C18.87 17.75 17.75 16.63 17.75 15.25C17.75 16.63 16.63 17.75 15.25 17.75C16.63 17.75 17.75 18.87 17.75 20.25Z" stroke="#1ce9b5" stroke-width="1.5" stroke-linecap="round" stroke-linejoin="round"></path> </g></svg>
